!!!!SEGMENT: pl-kk--kk-i-386--001-001_anonim--missa-prima-rorate.krn
!!!cenid: 18xx:4499
!!!COM: Anonim
!!!COM-rismID: pe30004985
!!!CDT:
!!!CNT:
!!!OPR: [Missa prima]
!!!OTL: Rorate
!!!OMV: 001
!!!PDT:
!!!AGN: Sacred
!!!YEC: Copyright 2022 Narodowy Instytut Fryderyka Chopina (https://polishscores.org)
!!!YEM: License CC-BY-4.0 (https://creativecommons.org/licenses/by/4.0)
!!!SMS-siglum: PL-Kk
!!!SMS-shelfmark: Kk.I.386
!!!SMS-variant:
!!!SMS-altvar:
!!!SMS-shelfwork: 001-001 M
!!!NIFC-rismSourceID: 1001218240
!!!NIFC-rismChildID: 1001218242
!!!NIFC-islandoraID: pl-kk:16982
!!!URL-pdf-islandora: https://repozytorium.nifc.pl/islandora/object/pl-kk%3A16060/datastream/PDF/view
!!!URL-scan: https://polish.musicsources.pl/pl/lokalizacje/galeria/rekopisy/7134/3 @EN{Scan on Polish Music Sources Website} @PL{Skany w portalu Dziedzictwo Muzyki Polskiej w otwartym dostępie}
!!!IIIF:
!!!ONB-nifc: UWAGA: Części Missy Prima: Rorate, Kyrie, Gloria, Graduale, Offertorium, Sanctus, Benedicuts, Agnus, Dona. Zakres skanów: S – 3-6, A – 12-15, T – 22-25, B – 32-25
!!!AIN: 1 alto 1 bass 1 soprn 1 tenor
!!!key:
**kern	**text	**kern	**text	**kern	**text	**kern	**text
*part4	*part4	*part3	*part3	*part2	*part2	*part1	*part1
*staff4	*staff4	*staff3	*staff3	*staff2	*staff2	*staff1	*staff1
*I"Basso.	*	*I"Tenore.	*	*I"Alto.	*	*I"Soprano.	*
*I'B	*	*I'T	*	*I'A	*	*I'S	*
*Ibass	*	*Itenor	*	*Ialto	*	*Isoprn	*
*ICvox	*	*ICvox	*	*ICalt	*	*ICvox	*
*clefF4	*	*clefC4	*	*clefC3	*	*clefC1	*
*k[]	*	*k[]	*	*k[]	*	*k[]	*
*C:	*	*C:	*	*C:	*	*C:	*
*M3/2	*	*M3/2	*	*M3/2	*	*M3/2	*
=1	=1	=1	=1	=1	=1	=1	=1
!LO:TX:b:t=3.	!	!LO:TX:a:t=2.	!	!LO:TX:a:t=1	!	!	!
*	*	*	*	*	*	*2\right	*
0.r	.	0.r	.	1.r	.	2g\	Ro-
.	.	.	.	.	.	2g\	-ra-
.	.	.	.	.	.	2g\	-te
=2	=2	=2	=2	=2	=2	=2	=2
*	*	*	*	*2\right	*	*	*
.	.	.	.	2c\	Ro-	2a\	ce-
.	.	.	.	2c\	-ra-	[1cc	.
.	.	.	.	2c\	-te	.	.
=3	=3	=3	=3	=3	=3	=3	=3
1.r	.	2G/	Ro-	2e\	ce-	2cc\]	.
.	.	2G/	-ra-	1g	-li,	1b	-li,
.	.	2G/	-te	.	.	.	.
=4	=4	=4	=4	=4	=4	=4	=4
*	*	*2\right	*	*	*	*	*
2C/	Ro-	2A\	ce-	2e\	Ro-	2cc\	Ro-
2C/	-ra-	1c	.	2e\	-ra-	2cc\	-ra-
2C/	-te	.	.	2e\	-te	2cc\	-te
=5	=5	=5	=5	=5	=5	=5	=5
2E\	ce-	2G/	.	2e\	ce-	2cc\	ce-
!	!	!	!	!	!	!LO:LB:g=original	!
*2\right	*	*	*	*	*	*	*
2G\	-li	2G/	-li,	2d\	-li	2cc\	-li
2G\	Ro-	2G/	Ro-	2d\	Ro-	2b\	ro-
=6	=6	=6	=6	=6	=6	=6	=6
2C/	-ra-	2G/	-ra-	2e\	-ra-	2cc\	-ra-
2F\	-te	2A/	-te	2f\	-te	2cc\	-te
!	!	!	!	!LO:LB:g=original	!	!	!
2F\	ce-	2A\	ce-	2f\	ce-	2cc\	ce-
=7	=7	=7	=7	=7	=7	=7	=7
2E\	-li	2c\	-li	2g\	-li	2cc\	-li
2.D\	de-	2.d\	de-	2.f\	de-	2cc\	de-
.	.	.	.	.	.	2b\	-su-
4D\	-su-	4d\	-su-	4f\	-su-	.	.
!	!	!LO:LB:g=original	!	!	!	!	!
=8	=8	=8	=8	=8	=8	=8	=8
4C/	-per	4e\	-per	4e\	-per	2cc\	-per,
4C/	Ro-	4e\	Ro-	4e\	Ro-	.	.
!LO:LB:g=original	!	!	!	!	!	!	!
2c\	-ra-	2e\	-ra-	2g\	-ra-	1cc	Ro-
2c\	-te	2e\	-te	2g\	-te	.	.
=9	=9	=9	=9	=9	=9	=9	=9
1B-X	ce-	4e\	ce-	1g	ce-	4cc\	-ra-
.	.	4f\	.	.	.	4dd\	.
.	.	4e\	.	.	.	4cc\	-te
.	.	4f\	.	.	.	4dd\	.
2B-\	-li	4e\	.	2g\	-li	4cc\	ce-
.	.	4f\	-li	.	.	4dd\	.
=10	=10	=10	=10	=10	=10	=10	=10
2A\	de-	2A\	de-	1fn	de-	2cc\	-li
2.G\	.	2d\	.	.	.	2.b-X\	de-
.	.	2B-X\	-su-	2e\	-su-	.	.
4G\	-su-	.	.	.	.	4b-\	-su-
!	!	!	!	!	!	!LO:LB:g=original	!
=11	=11	=11	=11	=11	=11	=11	=11
4F\	-per	4c\	-per	4f\	-per,	4a\	-per,
4F\	et	4c\	et	4f\	et	4a\	et
2F\	nu-	2c\	nu-	2f\	nu-	2a\	nu-
2F\	-bes	2c\	-bes	2f\	-bes	2a\	-bes
=12	=12	=12	=12	=12	=12	=12	=12
2E\	plu-	2c\	plu-	1g	plu-	2cc\	plu-
2D\	.	2d\	.	.	.	2bn\	.
2C/	-ant	2e\	.	2g\	-ant	[2cc\	-ant
!	!	!LO:LB:g=original	!	!LO:LB:g=original	!	!	!
=13	=13	=13	=13	=13	=13	=13	=13
2F\	iu-	2A\	-ant	1.fn	ius-	2cc\]	.
1D	.	2A\	ju-	.	.	2cc\	Ju-
.	.	2F/	.	.	.	2bn\	.
=14	=14	=14	=14	=14	=14	=14	=14
2C/	-stum,	4G/	-stum,	4e\	-tum	4cc\	-stum
.	.	4e\	a-	4e\	a-	4cc\	a-
2r	.	2f\	-pe-	2c\	-pe-	2a\	-pe-
2r	.	2e\	-ri-	2e\	-ri-	2cc\	-ri-
=15	=15	=15	=15	=15	=15	=15	=15
!LO:TX:a:t=1.	!	!	!	!	!	!	!
1.r	.	2.f\	-a-	(1c	-a-	1a	-a-
.	.	4e\	.	.	.	.	.
.	.	2d\	.	2f\)	.	2bn\	-tur
!LO:LB:g=original	!	!	!	!	!	!	!
=16	=16	=16	=16	=16	=16	=16	=16
4r	.	4c\	-tur,	4e\	-tur,	4cc\	a-
4C/	a-	4c\	a-	4e\	a-	8cc\L	.
.	.	.	.	.	.	8dd\J	.
2c\	-pe-	2c\	-pe-	2g\	-pe-	2ee\	-pe-
!	!	!	!	!	!	!LO:LB:g=original	!
2Bn\	-ri-	2G/	-ri-	2g\	-ri-	2dd\	-ri-
=17	=17	=17	=17	=17	=17	=17	=17
2.c\	-a-	1G	-a-	1e	-a-	2.ee\	-a-
4B\	.	.	.	.	.	4dd\	.
2A\	-tur,	2A\	-tur,	2f#X\	-tur	2cc\	.
=18	=18	=18	=18	=18	=18	=18	=18
2G\	ter-	2d\	ter-	2g\	ter-	2b\	.
4G\	-ra	4d\	-ra,	4g\	-ra,	4b\	-tur
4G\	a-	4d\	a-	4g\	a-	4b\	a-
4E\	-pe-	4e\	-pe-	4g\	-pe-	4cc\	-pe-
4E\	-ri-	4e\	-ri-	4g\	-ri-	4cc\	-ri-
!	!	!	!	!LO:LB:g=original	!	!	!
=19	=19	=19	=19	=19	=19	=19	=19
2.F\	-a-	1c	-a-	1fn	-a-	1a	-a-
4E\	-tur	.	.	.	.	.	.
2D\	.	2d\	-tur,	2f\	-tur	2b\	-tur
=20	=20	=20	=20	=20	=20	=20	=20
2C/	ter-	2G/	ter-	2e\	ter-	2cc\	ter-
2A\	-ra	2A/	-ra	2e\	-ra	2cc\	-ra
2E\	et	2G#X/	et	2e\	et	2b\	et
=21	=21	=21	=21	=21	=21	=21	=21
2A\	ger-	2A/	ger-	1e	ger-	2cc\	ger-
2E\	.	2G#X/	.	.	.	2b\	.
2F\	.	2c\	.	2c\	.	2a\	.
!LO:LB:g=original	!	!	!	!	!	!	!
=22	=22	=22	=22	=22	=22	=22	=22
2D\	.	1B	.	2f\	.	1a	.
2.E\	.	.	.	2.e\	-mi-	.	.
.	.	2B\	-mi-	.	.	2g#X\	-mi-
4E\	-mi-	.	.	4e\	-net	.	.
!	!	!	!	!	!	!LO:LB:g=original	!
=23	=23	=23	=23	=23	=23	=23	=23
2AA/	-net,	2c#X\	-net,	2e\	ger-	2a\	-net
2c\	et	1Gn	et	2e\	-mi-	2cc\	et
2G\	.	.	.	2d\	-net,	2bn\	.
=24	=24	=24	=24	=24	=24	=24	=24
2C/	ger-	4G/	ger-	2e\	ger-	2cc\	ger-
.	.	4A/	.	.	.	.	.
2G\	.	4G/	.	2d\	.	2bn\	.
.	.	4A/	.	.	.	.	.
2c\	.	2G/	.	2e\	.	2cc\	.
!	!	!	!	!LO:LB:g=original	!	!	!
=25	=25	=25	=25	=25	=25	=25	=25
2A\	.	2A\	.	2f\	.	2cc\	.
2B-X\	.	2.B-X\	.	2d\	.	2.b-X\	.
2G\	-mi-	.	.	2e\	-mi-	.	.
.	.	4B-\	-mi-	.	.	4b-\	-mi-
!	!	!LO:LB:g=original	!	!	!	!	!
=26	=26	=26	=26	=26	=26	=26	=26
1.F	-net,	1.c	-net,	1.f	-net,	1.a	-net
=27	=27	=27	=27	=27	=27	=27	=27
!LO:TX:b:t=5.	!	!	!	!	!	!	!
00.r	.	2f\	Sal-	2f\	Sal-	2a\	Sal-
.	.	2en\	.	2g\	.	2cc\	.
.	.	2e-X\	-va-	2g\	-va-	2cc\	-va-
=28	=28	=28	=28	=28	=28	=28	=28
.	.	2d\	-to-	1.f	-to-	2cc\	-to-
.	.	1d-X	.	.	.	1b-X	.
=29	=29	=29	=29	=29	=29	=29	=29
.	.	2.c\	.	2.e\	.	2.b-X\	.
.	.	4c\	-rem,	4e\	-rem,	4b-\	-rem
!	!	!	!	!	!	!LO:LB:g=original	!
.	.	2f\	Sal-	2f\	Sal-	2a\	Sal-
=30	=30	=30	=30	=30	=30	=30	=30
.	.	2B-X\	-va-	2f\	-va-	2g\	-va-
.	.	1c	-to-	2f\	-to-	1g	-to-
.	.	.	.	2e\	.	.	.
=31	=31	=31	=31	=31	=31	=31	=31
1.r	.	1.F	-rem,	1.f	-rem,	1.a	-rem
!	!	!	!	!LO:LB:g=original	!	!	!
=32	=32	=32	=32	=32	=32	=32	=32
2c\	Sal-	2c\	Sal-	2e\	Sal-	2ee\	Sal-
2B\	.	2d\	.	2g\	.	2dd\	.
2B-X\	-va-	2B-X\	-va-	2g\	-va-	2dd\	-va-
=33	=33	=33	=33	=33	=33	=33	=33
2A\	-to-	2c\	-to-	2g\	-to-	1.cc	-to-
1A-X	.	2f\	.	1fn	.	.	.
.	.	2F/	.	.	.	.	.
!LO:LB:g=original	!	!LO:LB:g=original	!	!	!	!	!
=34	=34	=34	=34	=34	=34	=34	=34
2.G\	.	2.G/	.	2.f\	.	2.bn\	.
4G\	-rem	4G/	-rem	4f\	-rem,	4b\	-rem
2c\	Sal-	2G/	Sal-	2e\	Sal-	2cc\	Sal-
=35	=35	=35	=35	=35	=35	=35	=35
2F\	-va-	2A\	-va-	2d\	-va-	2cc\	-va-
2G\	-to-	1G	-to-	1d	-to-	2cc\	-to-
2GG/	.	.	.	.	.	2bn\	.
=36	=36	=36	=36	=36	=36	=36	=36
4C/	-rem	4G/	-rem,	4e\	-rem,	4cc\	-rem,
4C/	et	4G/	et	4e\	et	4cc\	et
4C/	ger-	4G/	ger-	4e\	ger-	4cc\	ger-
4C/	-mi-	4G/	-mi-	4e\	-mi-	4cc\	-mi-
!	!	!	!	!	!	!LO:LB:g=original	!
2C/	-net	2G/	-net	2e\	-net,	2cc\	-net
!	!	!	!	!LO:LB:g=original	!	!	!
=37	=37	=37	=37	=37	=37	=37	=37
2F\	ger-	2A\	ger-	2f\	ger-	2cc\	ger-
4F\	-mi-	4A\	-mi-	4f\	-mi-	4cc\	-mi-
4F\	-net	4A\	-net	4f\	-net	4cc\	-net
4C/	Sal-	4G/	Sal-	4e\	Sal-	4cc\	Sal-
4C/	-va-	4G/	-va-	4e\	-va-	4cc\	-va-
!	!	!	!	!LO:LB:g=original	!	!	!
=38	=38	=38	=38	=38	=38	=38	=38
1.F	-to-	1.A	-to-	1.f	-to-	1.cc	-to-
=39	=39	=39	=39	=39	=39	=39	=39
1.C;	-rem.	1.G;	-rem.	1.e;	-rem.	1.cc;	-rem.
!LO:LB:g=original	!	!	!	!	!	!	!
=40||	=40||	=40||	=40||	=40||	=40||	=40||	=40||
2A\	Be-	2A\	Be-	2e\	Be-	2cc\	Be-
2A\	-ne-	2A\	-ne-	2e\	-ne-	2cc\	-ne-
2A\	-di-	2A\	-di-	2e\	-di-	2cc\	-di-
!	!	!LO:LB:g=original	!	!	!	!	!
=41	=41	=41	=41	=41	=41	=41	=41
1A	-xis-	1B	-xis-	1fn	-xis-	1dd	-xis-
2G\	-ti	2B\	-ti	2g\	-ti	2ee\	-ti
=42	=42	=42	=42	=42	=42	=42	=42
1F	Do-	2c\	Do-	1a	Do-	1ee	Do-
.	.	2.A\	.	.	.	.	.
2F\	-mi-	.	.	2a\	-mi-	2dd\	-mi-
.	.	4A\	-mi-	.	.	.	.
=43	=43	=43	=43	=43	=43	=43	=43
2E\	-ne	2B\	-ne	2g#X\	-ne,	2ee\	-ne
!	!	!	!	!	!	!LO:LB:g=original	!
2r	.	2r	.	2r	.	2ee\	ter-
2r	.	2r	.	2r	.	2dd\	-ram
=44	=44	=44	=44	=44	=44	=44	=44
2r	.	2r	.	2r	.	1cc	tu-
2A\	ter-	2c\	ter-	2e\	ter-	.	.
2G\	-ram	2e\	-ram	2e\	-ram	2b\	-am
!	!	!	!	!LO:LB:g=original	!	!	!
=45	=45	=45	=45	=45	=45	=45	=45
1F	ter-	1A	ter-	1fn	ter-	1cc	ter-
2E\	-ram	2c\	-ram	2g\	-ram	2cc\	-ram
=46	=46	=46	=46	=46	=46	=46	=46
2D\	tu-	2A/	tu-	2f\	tu-	1cc	tu-
2G\	.	1G	.	1d	.	.	.
2GG/	.	.	.	.	.	2b\	.
!LO:LB:g=original	!	!	!	!	!	!	!
=47	=47	=47	=47	=47	=47	=47	=47
2C/	-am,	2G/	-am	2e\	-am,	2cc\	-am
2C/	a-	2G/	a-	2e\	a-	2cc\	a-
2c\	-ver-	2c\	-ver-	2e\	-ver-	2cc\	-ver-
!	!	!LO:LB:g=original	!	!	!	!	!
=48	=48	=48	=48	=48	=48	=48	=48
2F\	-tis-	2c\	-tis-	2f\	-tis-	2a\	-tis-
4F\	-ti	4d\	-ti	4g\	-ti	4b\	-ti,
4F\	cap-	4d\	cap-	4g\	cap-	4b\	cap-
4E\	-ti-	4e\	-ti-	4g\	-ti-	4cc\	-ti-
4E\	-vi-	4e\	-vi-	4g\	-vi-	4cc\	-vi-
=49	=49	=49	=49	=49	=49	=49	=49
2F\	-ta-	2A/	-ta-	4f\	-ta-	(1cc	-ta-
.	.	.	.	4e\	.	.	.
2G\	.	1G	.	1d	.	.	.
2GG/	.	.	.	.	.	2b\)	.
!	!	!	!	!	!	!LO:LB:g=original	!
=50	=50	=50	=50	=50	=50	=50	=50
2C/	-tem	2G/	-tem,	2e\	-tem	2cc\	-tem
2C/	cap-	1G	cap-	2e\	ca-	(2cc\	cap-
2BB/	.	.	.	2g\	.	2dd\)	.
!	!	!	!	!LO:LB:g=original	!	!	!
=51	=51	=51	=51	=51	=51	=51	=51
2.AA/	-ti-	2.A\	-ti-	2.f#X\	-pti-	2.cc\	-ti-
4AA/	-vi-	4A\	-vi-	4f#\	-vi-	4cc\	-vi-
2GG/	-ta-	2B\	-ta	2g\	-ta-	2dd\	-ta-
=52	=52	=52	=52	=52	=52	=52	=52
2C/	-tem	2e\	-tem	2g\	-tem	4cc\	-tem
.	.	.	.	.	.	4b\	.
1D	Ja-	1d	Ja-	2g\	Ja-	1a	Ja-
.	.	.	.	2f#X\	.	.	.
!LO:LB:g=original	!	!	!	!	!	!	!
=53	=53	=53	=53	=53	=53	=53	=53
2GG/	-cob	2d\	-cob,	2g\	-cob,	2b\	-cob,
2r	.	2r	.	4g\	Glo-	2r	.
.	.	.	.	4fn\	.	.	.
2r	.	2r	.	4e\	.	2r	.
.	.	.	.	4d\	.	.	.
=54	=54	=54	=54	=54	=54	=54	=54
2r	.	2r	.	2.e\	.	2r	.
4c\	Glo-	2G/	Glo-	.	.	[1cc	Glo-
4B-X\	.	.	.	4e\	ri-	.	.
4A\	.	2A/	.	2e\	-a,	.	.
4G\	.	.	.	.	.	.	.
!	!	!LO:LB:g=original	!	!	!	!	!
=55	=55	=55	=55	=55	=55	=55	=55
2.F\	.	2.A\	.	2.fn\	Glo-	2.cc\]	.
4F\	-ri-	4A\	-ri-	4f\	-ri-	4cc\	-ri-
2A\	-a	2A\	-a	2f\	-a	2cc\	-a
=56	=56	=56	=56	=56	=56	=56	=56
2B-X\	Pa-	2d\	Pa-	2f\	Pa-	2b-X\	Pa-
2F\	-tri	2c\	-tri	2a\	-tri	2cc\	-tri
!	!	!	!	!LO:LB:g=original	!	!LO:LB:g=original	!
2B-\	et	2d\	et	4g\	et	4b-X\	et
.	.	.	.	4f\	.	4a\	.
=57	=57	=57	=57	=57	=57	=57	=57
1c	Fi-	1c	Fi-	1f	Fi-	1g	Fi-
2C/	-li-	2c\	-li-	2e\	-li-	2g\	-li-
=58	=58	=58	=58	=58	=58	=58	=58
2F\	-o,	2c\	-o	2f\	-o	2a\	-o,
2r	.	2f\	et	2f\	et	2a\	et
2r	.	2c\	Spi-	2e\	Spi-	2a\	Spi-
!LO:LB:g=original	!	!	!	!	!	!	!
=59	=59	=59	=59	=59	=59	=59	=59
!LO:TX:a:t=2	!	!	!	!	!	!	!
0.r	.	2.d\	-ri-	2.d\	-ri-	2.a\	-ri-
.	.	4d\	-tu-	4d\	-tu-	4a\	-tu-
.	.	2A\	-i	2c\	-i	2a\	-i
=60	=60	=60	=60	=60	=60	=60	=60
.	.	2d\	san-	1.Bn	San-	1a	San-
.	.	1e	.	.	.	.	.
.	.	.	.	.	.	2g#X\	.
=61	=61	=61	=61	=61	=61	=61	=61
2r	.	2A\	-cto,	2c#X\	-cto,	2a\	-cto,
2A\	si-	2A\	si-	2e\	si-	2cc\	si-
2A\	-cut	2A\	-cut	2e\	-cut	2cc\	-cut
!	!	!LO:LB:g=original	!	!	!	!	!
=62	=62	=62	=62	=62	=62	=62	=62
1Bn	e-	1G	e-	1d	e-	1bn	e-
2B\	-rat	2G/	-rat	2d\	-rat	2b\	-rat
!	!	!	!	!	!	!LO:LB:g=original	!
=63	=63	=63	=63	=63	=63	=63	=63
2c\	in	2G/	in	2e\	in	(2g\	in
2E\	.	1c	prin-	2g\	.	2cc\)	.
2F\	prin-	.	.	2fn\	prin-	2a\	prin-
!	!	!	!	!LO:LB:g=original	!	!	!
=64	=64	=64	=64	=64	=64	=64	=64
2.G\	-ci-	2.B\	-ci-	2.d\	-ci-	2.g\	-ci-
4G\	-pi-	4B\	-pi-	4d\	-pi-	4g\	-pi-
2F\	-o	2B\	-o	2d\	-o,	2g\	-o
=65	=65	=65	=65	=65	=65	=65	=65
2E\	et	2c\	et	2g\	et	2g\	et
2F\	nunc	2c\	nunc	2fn\	nunc	2a\	nunc
2D\	et	2d\	et	2f\	et	2b\	et
=66	=66	=66	=66	=66	=66	=66	=66
2C/	sem-	1.G	sem-	2e\	sem-	1cc	sem-
2G\	.	.	.	1d	.	.	.
2GG/	.	.	.	.	.	2b\	.
!LO:LB:g=original	!	!	!	!	!	!	!
=67	=67	=67	=67	=67	=67	=67	=67
2C/	-per	2G/	-per	2e\	-per,	2cc\	-per
2r	.	2c\	et	2f\	et	2cc\	et
2r	.	2e\	in	2e\	in	2cc\	in
=68	=68	=68	=68	=68	=68	=68	=68
!LO:TX:a:t=3	!	!	!	!	!	!	!
0.r	.	2.f\	se-	2.a\	se-	2.cc\	se-
.	.	4f\	-cu-	4a\	-cu-	4cc\	-cu-
!	!	!	!	!	!	!LO:LB:g=original	!
.	.	2c\	-la	2g\	-la	2cc\	-la
=69	=69	=69	=69	=69	=69	=69	=69
.	.	2.A\	se-	2.f#X\	se-	2.cc\	se-
.	.	4A\	-cu-	4f#\	-cu-	4cc\	-cu-
!	!	!LO:LB:g=original	!	!	!	!	!
.	.	2G/	-lo-	2g\	-lo-	2b\	-lo-
=70	=70	=70	=70	=70	=70	=70	=70
1.r	.	2c\	-rum	2g\	-rum	2a\	-rum
.	.	1d	a-	2g\	a-	1a	a-
.	.	.	.	2f#X\	.	.	.
=71	=71	=71	=71	=71	=71	=71	=71
2r	.	2G/	-men	2g\	-men,	2bn\	-men
2G\	et	2d\	et	2g\	et	2b\	et
2B\	in	2d\	in	2g\	in	2dd\	in
=72	=72	=72	=72	=72	=72	=72	=72
2.c\	se-	2.e\	se-	2.g\	se-	2.cc\	se-
4c\	-cu-	4e\	-cu-	4g\	-cu-	4cc\	-cu-
2G\	-la	2d\	-la	2g\	-la	2b\	-la
=73	=73	=73	=73	=73	=73	=73	=73
2.E\	se-	2.c\	se-	2.g\	se-	2.cc\	se-
4E\	-cu-	4c\	-cu-	4g\	-cu-	4cc\	-cu-
2F\	-lo-	2A\	-lo-	2fn\	-lo	2cc\	-lo-
=74	=74	=74	=74	=74	=74	=74	=74
2C/	-rum	2G/	-rum	2e\	-rum	2cc\	-rum
2G\	a-	1G	a-	1d	a-	2cc\	a-
2GG/	.	.	.	.	.	2b\	.
=75	=75	=75	=75	=75	=75	=75	=75
2C/	-men	2G/	-men	2e\	-men	2cc\	-men
!LO:LB:g=original	!	!	!	!	!	!	!
4c\	a-	2r	.	2r	.	4ee\	a-
4B-X\	.	.	.	.	.	4dd\	.
4A\	.	4G/	a-	4A/	a-	4cc\	.
4G\	.	4E/	-men	4B/	.	4b-X\	.
!	!	!LO:LB:g=original	!	!	!	!	!
=76	=76	=76	=76	=76	=76	=76	=76
1F	.	2F/	a-	2c\	.	2a\	.
!	!	!	!	!	!	!LO:LB;g=original	!
.	.	1G	-men	2d\	.	2bn\	.
2E\	men	.	.	2e\	-men	2cc\	-men
=77	=77	=77	=77	=77	=77	=77	=77
2F\	a-	2A\	a-	1.d	a-	1cc	a-
2G\	.	1G	.	.	.	.	.
2GG/	.	.	.	.	.	2b\	.
=78	=78	=78	=78	=78	=78	=78	=78
1.C;	-men.	1.G	-men.	1.e	-men.	1.cc	-men.
==	==	==	==	==	==	==	==
*-	*-	*-	*-	*-	*-	*-	*-
!!!system-decoration: [(s1,s2,s3,s4)]
!!!ENC: Filip Voros
!!!END: 2023-10-30
!!!ENC: Leszek Kubiak
!!!END: 2024-06-23
